icon_installer/data/icons/scalable/actions/show-tree2-symbolic.svg

<?xml version="1.0" encoding="UTF-8"?>
<svg height="16px" viewBox="0 0 16 16" width="16px" xmlns="http://www.w3.org/2000/svg">
    <g fill="#222222">
        <path d="m 7 8 v 6 l -1 1 h 4 l -1 -1 v -5 l 3 -1 h -3 v -3 h -5 l 3 1 z m 0 0"/>
        <path d="m 4.203125 0 c -1.1875 0 -2.171875 0.984375 -2.171875 2.167969 v 7.664062 c 0 1.183594 0.984375 2.167969 2.171875 2.167969 h 1.574219 v -2 h -1.574219 c -0.113281 0 -0.171875 -0.058594 -0.171875 -0.167969 v -7.664062 c 0 -0.109375 0.058594 -0.167969 0.171875 -0.167969 h 7.625 c 0.113281 0 0.171875 0.058594 0.171875 0.167969 v 7.664062 c 0 0.109375 -0.058594 0.167969 -0.171875 0.167969 h -1.609375 v 2 h 1.609375 c 1.1875 0 2.171875 -0.984375 2.171875 -2.167969 v -7.664062 c 0 -1.183594 -0.984375 -2.167969 -2.171875 -2.167969 z m 0 0"/>
    </g>
</svg>

<svg xmlns="http://www.w3.org/2000/svg" width="16" height="16"><g fill="#222"><path d="M7 8v6l-1 1h4l-1-1V9l3-1H9V5H4l3 1zm0 0"/><path d="M4.203 0a2.187 2.187 0 0 0-2.172 2.168v7.664c0 1.184.985 2.168 2.172 2.168h1.574v-2H4.203c-.113 0-.172-.059-.172-.168V2.168c0-.11.059-.168.172-.168h7.625c.113 0 .172.059.172.168v7.664c0 .11-.059.168-.172.168h-1.61v2h1.61A2.187 2.187 0 0 0 14 9.832V2.168A2.187 2.187 0 0 0 11.828 0zm0 0"/></g></svg>
